svg/fluentui-system-icons/ic_fluent_arrow_step_out_20_regular.svg

<svg width="20" height="20" viewBox="0 0 20 20" fill="none" xmlns="http://www.w3.org/2000/svg">
<path d="M10 15C9.44772 15 9 15.4477 9 16C9 16.5523 9.44772 17 10 17C10.5523 17 11 16.5523 11 16C11 15.4477 10.5523 15 10 15ZM8 16C8 14.8954 8.89543 14 10 14C11.1046 14 12 14.8954 12 16C12 17.1046 11.1046 18 10 18C8.89543 18 8 17.1046 8 16ZM10 12C10.2761 12 10.5 11.7761 10.5 11.5V3.70711L13.6464 6.85355C13.8417 7.04882 14.1583 7.04882 14.3536 6.85355C14.5488 6.65829 14.5488 6.34171 14.3536 6.14645L10.3536 2.14645C10.1583 1.95118 9.84171 1.95118 9.64645 2.14645L5.64645 6.14645C5.45118 6.34171 5.45118 6.65829 5.64645 6.85355C5.84171 7.04882 6.15829 7.04882 6.35355 6.85355L9.5 3.70711V11.5C9.5 11.7761 9.72386 12 10 12Z" fill="#212121"/>
</svg>

<svg xmlns="http://www.w3.org/2000/svg" width="20" height="20"><path d="M10 15a1 1 0 1 0 0 2 1 1 0 0 0 0-2Zm-2 1a2 2 0 1 1 4 0 2 2 0 0 1-4 0Zm2-4a.5.5 0 0 0 .5-.5V3.707l3.146 3.147a.5.5 0 0 0 .708-.708l-4-4a.5.5 0 0 0-.708 0l-4 4a.5.5 0 1 0 .708.708L9.5 3.707V11.5a.5.5 0 0 0 .5.5Z"/></svg>
